X:1
T:Låteskensdansen
R:Schottis
S:Efter Henrik Lönnberg
O:Järbo, Gästrikland
M:2/4
L:1/16
K:Am
|: A2AA A2AB|c2cB A2Ac|e2ed c2cB|A^GAB A2E2|
A2AA A2AB|c2cB A2Ac|e2ed c2cB|A^GAB A4:|
|:EDEG c3E|FEFA d3c|B2a2 g2B2|cBcd c2G2|
EDEG c3E|FEFA d3c|B2a2 g2B2|cBcd [Ec]4:|

